icons/lines/volume-high.svg

<svg xmlns="http://www.w3.org/2000/svg" width="24" height="24" viewBox="0 0 24 24" fill="none" stroke="currentColor" stroke-width="2" stroke-linecap="round" stroke-linejoin="round" >
  <path d="M2 9.99997V14C2 16 3 17 5 17H6.43C6.8 17 7.17 17.11 7.49 17.3L10.41 19.13C12.93 20.71 15 19.56 15 16.59V7.40997C15 4.42997 12.93 3.28997 10.41 4.86997L7.49 6.69997C7.17 6.88997 6.8 6.99997 6.43 6.99997H5C3 6.99997 2 7.99997 2 9.99997Z"/>
  <path d="M18 8C19.78 10.37 19.78 13.63 18 16"/>
  <path d="M19.8301 5.5C22.7201 9.35 22.7201 14.65 19.8301 18.5"/>
  </svg>

<svg xmlns="http://www.w3.org/2000/svg" width="24" height="24" viewBox="0 0 24 24" fill="none" stroke="currentColor" stroke-width="2" stroke-linecap="round" stroke-linejoin="round">
  <path d="M18 8a6.66 6.66 0 0 1 0 8" />
  <path d="M19.83 5.5a10.83 10.83 0 0 1 0 13" />
  <path d="M2 14q0 3 3 3h1.43a2 2 0 0 1 1.06.3l2.92 1.83c2.52 1.58 4.59.43 4.59-2.54V7.41c0-2.98-2.07-4.12-4.59-2.54L7.49 6.7a2 2 0 0 1-1.06.3H5q-3 0-3 3z" />
</svg>
